X:29
T:Scotch Gray’s March. JaW.029
M:3/4
L:1/8
Q:3/4=60
S:James Winder Ms, Lancashire, 1835-41
R:.March
O:England
A:Wyresdale,Lancashire
Z:vmp.Chris Partington, Aug 2004
K:D
D2D>DD>D|F2D2F2|A2A>AA>A|A2F2A2|!
d2d>dd>d|d2A2F2|D2D>DD>D|D6:|!
|:d2d>dd>d|d4 (3fdf |e2A>AA>A|A6|!
e2e>ee>e|e4 (3geg |f2d>dd>d|” D.C.”d6:|

